Newaita-dark/apps/22/mongodb-compass.svg

<svg height="22pt" viewBox="0 0 22 22" width="22pt" xmlns="http://www.w3.org/2000/svg" xmlns:xlink="http://www.w3.org/1999/xlink"><linearGradient id="a"><stop offset="0" stop-opacity=".313726"/><stop offset=".222222" stop-opacity=".27451"/><stop offset="1" stop-opacity="0"/></linearGradient><radialGradient id="b" cx="450.908936" cy="189.579361" gradientTransform="matrix(.00000012 -.0470015 -.0966889 -.00000006 29.472676 40.779412)" gradientUnits="userSpaceOnUse" r="21.166656" xlink:href="#a"/><radialGradient id="c" cx="450.908936" cy="189.579361" gradientTransform="matrix(-.00000012 .0470015 .0966889 .00000006 -7.642466 -2.005367)" gradientUnits="userSpaceOnUse" r="21.166656" xlink:href="#a"/><radialGradient id="d" cx="450.908936" cy="189.579361" gradientTransform="matrix(-.00000012 -.0470015 .0966889 -.00000006 -7.642466 40.779412)" gradientUnits="userSpaceOnUse" r="21.166656" xlink:href="#a"/><radialGradient id="e" cx="450.908936" cy="189.579361" gradientTransform="matrix(.00000012 .0470015 -.0966889 .00000006 29.472674 -2.005367)" gradientUnits="userSpaceOnUse" r="21.166656" xlink:href="#a"/><linearGradient id="f" gradientTransform="matrix(.00918504 0 0 .0376012 8.569952 10.607141)" gradientUnits="userSpaceOnUse" x1="255.323059" x2="255.323044" y1="233.5" y2="254.666656"><stop offset="0" stop-opacity=".27451"/><stop offset="1" stop-opacity="0"/></linearGradient><linearGradient id="g" gradientUnits="userSpaceOnUse" x1="10.9151166" x2="10.9151166" y1="19.27333515" y2="1.99106697081"><stop offset="0" stop-color="#424242"/><stop offset="1" stop-color="#616161"/></linearGradient><linearGradient id="h"><stop offset="0" stop-color="#66bb6a"/><stop offset="1" stop-color="#81c784"/></linearGradient><linearGradient id="i" gradientUnits="userSpaceOnUse" x1="10.9151166" x2="10.9151166" xlink:href="#h" y1="19.27333515" y2="1.99106697081"/><linearGradient id="j" gradientUnits="userSpaceOnUse" x1="254" x2="254" y1="127.666656" y2="74.75"><stop offset="0" stop-color="#bdbdbd"/><stop offset="1" stop-color="#e0e0e0"/></linearGradient><linearGradient id="k" gradientUnits="userSpaceOnUse" x1="10.46032030419" x2="10.46032030419" y1="12.90618391459" y2="5.17464276041"><stop offset="0" stop-color="#9ccc65"/><stop offset="1" stop-color="#aed581"/></linearGradient><linearGradient id="l" gradientUnits="userSpaceOnUse" x1="12.279506175" x2="12.279506175" xlink:href="#h" y1="12.90618391459" y2="5.17464276041"/><path d="m11.371094 19.386719h1.816406v-.796875h-1.816406zm0 0" fill="url(#b)"/><path d="m10.460938 19.386719h-1.820313v.796875h1.820313zm0 0" fill="url(#c)"/><path d="m10.460938 19.386719h-1.820313v-.796875h1.820313zm0 0" fill="url(#d)"/><path d="m11.371094 19.386719h1.816406v.796875h-1.816406zm0 0" fill="url(#e)"/><path d="m10.460938 19.1875h.910156v.996094h-.910156zm0 0" fill="url(#f)"/><path d="m10.914062 1.992188c5.914063 0 8.1875 1.363281 8.1875 2.726562 0 6.824219-5.003906 14.554688-8.1875 14.554688-3.183593 0-8.183593-7.730469-8.183593-14.554688 0-1.363281 2.726562-2.726562 8.183593-2.726562zm0 0" fill="url(#g)"/><path d="m10.914062 1.992188c-5.457031 0-8.183593 1.363281-8.183593 2.726562 0 6.824219 5 14.554688 8.183593 14.554688 3.183594 0 8.1875-7.730469 8.1875-14.554688 0-1.363281-2.273437-2.726562-8.1875-2.726562zm0 .910156c5.296876 0 7.332032 1.21875 7.332032 2.441406 0 6.109375-4.480469 13.03125-7.332032 13.03125-2.851562 0-7.328124-6.921875-7.328124-13.03125 0-1.222656 2.441406-2.441406 7.328124-2.441406zm0 0" fill="url(#i)"/><path d="m19.097656 4.617188c-.140625 6.746093-5.046875 14.253906-8.183594 14.253906-3.136718 0-8.035156-7.503906-8.183593-14.25v.082031c0 6.824219 5 14.554687 8.183593 14.554687 3.183594 0 8.1875-7.730468 8.1875-14.554687 0-.027344 0-.058594-.003906-.085937zm0 0" fill-opacity=".235294"/><path d="m10.914062 1.992188c-5.457031 0-8.183593 1.363281-8.183593 2.726562v.179688c.0625-1.347657 2.789062-2.679688 8.183593-2.679688 5.839844 0 8.128907 1.328125 8.1875 2.675781 0-.058593 0-.117187 0-.175781 0-1.363281-2.273437-2.726562-8.1875-2.726562zm0 0" fill="#fff" fill-opacity=".392157"/><path d="m10.914062 5.625s-3.40625 2.683594-3.058593 5.042969c.246093 1.667969 1.832031 2.34375 2.617187 2.578125-.007812.035156-.011718.074218-.011718.109375v1.363281c0 .253906.203124.457031.453124.457031.253907 0 .457032-.203125.457032-.457031v-1.363281c0-.035157-.003906-.074219-.015625-.109375.789062-.234375 2.371093-.910156 2.617187-2.578125.347656-2.359375-3.058594-5.042969-3.058594-5.042969zm0 0" fill-opacity=".313726"/><path d="m253.975747 74.790508c5.908526 0 10.635348 4.726822 10.635348 10.544448v31.724243c0 5.908527-4.726822 10.635348-10.635348 10.635348-5.817627 0-10.544448-4.726821-10.544448-10.635348v-31.724243c0-5.817626 4.726821-10.544448 10.544448-10.544448zm0 0" fill="url(#j)" stroke="#78909c" stroke-linecap="round" stroke-linejoin="round" stroke-width="2" transform="matrix(.0429729 0 0 .0429729 0 9.239163)"/><path d="m10.914062 1.925781c-2.734374 0-4.785156.34375-6.160156.859375-.6875.257813-1.207031.558594-1.558594.886719-.347656.328125-.53125.683594-.53125 1.046875 0 3.429688 1.253907 7.074219 2.910157 9.867188.824219 1.398437 1.753906 2.582031 2.675781 3.421874.921875.835938 1.84375 1.328126 2.664062 1.328126.824219 0 1.742188-.492188 2.667969-1.328126.921875-.839843 1.847657-2.023437 2.675781-3.421874 1.652344-2.792969 2.90625-6.4375 2.90625-9.867188 0-.359375-.148437-.714844-.464843-1.046875-.3125-.328125-.789063-.628906-1.449219-.886719-1.320312-.519531-3.375-.859375-6.335938-.859375zm0 .128907c2.953126 0 4.992188.34375 6.289063.847656.644531.253906 1.105469.550781 1.402344.859375.296875.3125.429687.636719.429687.957031 0 3.394531-1.246094 7.027344-2.886718 9.804688-.824219 1.386718-1.746094 2.5625-2.65625 3.386718-.910157.828125-1.808594 1.296875-2.578126 1.296875-.769531 0-1.667968-.46875-2.578124-1.296875-.910157-.824218-1.832032-2-2.652344-3.386718-1.644532-2.777344-2.890625-6.410157-2.890625-9.804688 0-.320312.160156-.640625.492187-.953125.332032-.3125.835938-.609375 1.511719-.863281 1.355469-.503906 3.394531-.847656 6.117187-.847656zm0 .78125c-2.449218 0-4.285156.304687-5.519531.769531-.617187.230469-1.082031.5-1.394531.792969-.316406.296874-.480469.617187-.480469.945312 0 3.070312 1.125 6.335938 2.605469 8.839844.742188 1.25 1.570312 2.3125 2.398438 3.0625.828124.75 1.652343 1.195312 2.390624 1.195312.738282 0 1.566407-.445312 2.390626-1.195312.828124-.75 1.660156-1.8125 2.398437-3.0625 1.484375-2.503906 2.605469-5.769532 2.605469-8.839844 0-.324219-.136719-.644531-.417969-.941406s-.710937-.566406-1.300781-.796875c-1.183594-.464844-3.023438-.769531-5.675782-.769531zm0 .128906c2.644532 0 4.46875.304687 5.628907.757812.578125.226563.992187.492188 1.253906.769532.265625.277343.382813.5625.382813.851562 0 3.039062-1.113282 6.289062-2.585938 8.773438-.734375 1.242187-1.558594 2.296874-2.375 3.035156-.8125.738281-1.617188 1.160156-2.304688 1.160156-.683593 0-1.488281-.421875-2.304687-1.160156-.8125-.738282-1.636719-1.792969-2.371094-3.035156-1.472656-2.484376-2.589843-5.734376-2.589843-8.773438 0-.285156.140624-.570312.4375-.851562.296874-.277344.75-.539063 1.355468-.769532 1.210938-.453125 3.035156-.757812 5.472656-.757812zm0 0" fill="#212121"/><path d="m10.914062 5.175781s-3.40625 2.679688-3.058593 5.042969c.332031 2.234375 3.058593 2.6875 3.058593 2.6875zm0 0" fill="url(#k)"/><path d="m10.914062 5.175781s3.40625 2.679688 3.058594 5.042969c-.328125 2.234375-3.058594 2.6875-3.058594 2.6875zm0 0" fill="url(#l)"/><path d="m10.914062 5.175781s-3.183593 2.507813-3.078124 4.808594c.097656-2.234375 3.078124-4.582031 3.078124-4.582031s2.980469 2.347656 3.082032 4.582031c.105468-2.300781-3.082032-4.808594-3.082032-4.808594zm-.453124 7.84375v.113281c0-.035156.003906-.074218.011718-.109374-.003906 0-.007812 0-.011718-.003907zm.910156 0c-.003906.003907-.011719.003907-.015625.003907.011719.035156.015625.074218.015625.109374zm0 0" fill="#fff" fill-opacity=".588235"/><path d="m959.908384 455.217827s-299.584864 235.682588-269.007969 443.536766c21.644319 146.700386 161.129933 206.136374 230.185618 226.750012-.687121 3.092045-1.030682 6.184091-1.030682 9.619697v119.902658c0 22.33144 17.865153 40.196593 39.853033 40.196593 22.33144 0 40.196593-17.865153 40.196593-40.196593v-119.902658c0-3.435606-.343561-6.527652-1.374243-9.619697 69.399246-20.613638 208.541299-80.049626 230.185618-226.750012 30.576896-207.854178-269.007968-443.536766-269.007968-443.536766zm0 0" fill="none" stroke="#212121" stroke-linecap="round" stroke-linejoin="round" stroke-width="11.338583" transform="scale(.0113699)"/></svg>

<?xml version="1.0" encoding="UTF-8"?>
<svg xmlns="http://www.w3.org/2000/svg" xmlns:xlink="http://www.w3.org/1999/xlink" width="22pt" height="22pt" viewBox="0 0 22 22" version="1.1">
<defs>
<radialGradient id="radial0" gradientUnits="userSpaceOnUse" cx="450.908936" cy="189.579361" fx="450.908936" fy="189.579361" r="21.166656" gradientTransform="matrix(0.000000119742,-0.0470015,-0.0966889,-0.0000000610817,29.472676,40.779412)">
<stop offset="0" style="stop-color:rgb(0%,0%,0%);stop-opacity:0.313726;"/>
<stop offset="0.222222" style="stop-color:rgb(0%,0%,0%);stop-opacity:0.27451;"/>
<stop offset="1" style="stop-color:rgb(0%,0%,0%);stop-opacity:0;"/>
</radialGradient>
<radialGradient id="radial1" gradientUnits="userSpaceOnUse" cx="450.908936" cy="189.579361" fx="450.908936" fy="189.579361" r="21.166656" gradientTransform="matrix(-0.000000119742,0.0470015,0.0966889,0.0000000610817,-7.642466,-2.005367)">
<stop offset="0" style="stop-color:rgb(0%,0%,0%);stop-opacity:0.313726;"/>
<stop offset="0.222222" style="stop-color:rgb(0%,0%,0%);stop-opacity:0.27451;"/>
<stop offset="1" style="stop-color:rgb(0%,0%,0%);stop-opacity:0;"/>
</radialGradient>
<radialGradient id="radial2" gradientUnits="userSpaceOnUse" cx="450.908936" cy="189.579361" fx="450.908936" fy="189.579361" r="21.166656" gradientTransform="matrix(-0.000000119742,-0.0470015,0.0966889,-0.0000000610817,-7.642466,40.779412)">
<stop offset="0" style="stop-color:rgb(0%,0%,0%);stop-opacity:0.313726;"/>
<stop offset="0.222222" style="stop-color:rgb(0%,0%,0%);stop-opacity:0.27451;"/>
<stop offset="1" style="stop-color:rgb(0%,0%,0%);stop-opacity:0;"/>
</radialGradient>
<radialGradient id="radial3" gradientUnits="userSpaceOnUse" cx="450.908936" cy="189.579361" fx="450.908936" fy="189.579361" r="21.166656" gradientTransform="matrix(0.000000119742,0.0470015,-0.0966889,0.0000000610817,29.472674,-2.005367)">
<stop offset="0" style="stop-color:rgb(0%,0%,0%);stop-opacity:0.313726;"/>
<stop offset="0.222222" style="stop-color:rgb(0%,0%,0%);stop-opacity:0.27451;"/>
<stop offset="1" style="stop-color:rgb(0%,0%,0%);stop-opacity:0;"/>
</radialGradient>
<linearGradient id="linear0" gradientUnits="userSpaceOnUse" x1="255.323059" y1="233.5" x2="255.323044" y2="254.666656" gradientTransform="matrix(0.00918504,0,0,0.0376012,8.569952,10.607141)">
<stop offset="0" style="stop-color:rgb(0%,0%,0%);stop-opacity:0.27451;"/>
<stop offset="1" style="stop-color:rgb(0%,0%,0%);stop-opacity:0;"/>
</linearGradient>
<linearGradient id="linear1" gradientUnits="userSpaceOnUse" x1="254" y1="233.5" x2="254" y2="-168.666672" gradientTransform="matrix(0.0429729,0,0,0.0429729,0,9.239163)">
<stop offset="0" style="stop-color:rgb(25.882354%,25.882354%,25.882354%);stop-opacity:1;"/>
<stop offset="1" style="stop-color:rgb(38.039216%,38.039216%,38.039216%);stop-opacity:1;"/>
</linearGradient>
<linearGradient id="linear2" gradientUnits="userSpaceOnUse" x1="254" y1="233.5" x2="254" y2="-168.666672" gradientTransform="matrix(0.0429729,0,0,0.0429729,0,9.239163)">
<stop offset="0" style="stop-color:rgb(40.000001%,73.333335%,41.568628%);stop-opacity:1;"/>
<stop offset="1" style="stop-color:rgb(50.588238%,78.039217%,51.764709%);stop-opacity:1;"/>
</linearGradient>
<linearGradient id="linear3" gradientUnits="userSpaceOnUse" x1="254" y1="127.666656" x2="254" y2="74.75" >
<stop offset="0" style="stop-color:rgb(74.117649%,74.117649%,74.117649%);stop-opacity:1;"/>
<stop offset="1" style="stop-color:rgb(87.843138%,87.843138%,87.843138%);stop-opacity:1;"/>
</linearGradient>
<linearGradient id="linear4" gradientUnits="userSpaceOnUse" x1="243.416672" y1="85.333336" x2="243.416672" y2="-94.583336" gradientTransform="matrix(0.0429729,0,0,0.0429729,0,9.239163)">
<stop offset="0" style="stop-color:rgb(61.176473%,80.000001%,39.607844%);stop-opacity:1;"/>
<stop offset="1" style="stop-color:rgb(68.235296%,83.529413%,50.588238%);stop-opacity:1;"/>
</linearGradient>
<linearGradient id="linear5" gradientUnits="userSpaceOnUse" x1="285.75" y1="85.333336" x2="285.75" y2="-94.583336" gradientTransform="matrix(0.0429729,0,0,0.0429729,0,9.239163)">
<stop offset="0" style="stop-color:rgb(40.000001%,73.333335%,41.568628%);stop-opacity:1;"/>
<stop offset="1" style="stop-color:rgb(50.588238%,78.039217%,51.764709%);stop-opacity:1;"/>
</linearGradient>
</defs>
<g id="surface1">
<path style=" stroke:none;fill-rule:nonzero;fill:url(#radial0);" d="M 11.371094 19.386719 L 13.1875 19.386719 L 13.1875 18.589844 L 11.371094 18.589844 Z M 11.371094 19.386719 "/>
<path style=" stroke:none;fill-rule:nonzero;fill:url(#radial1);" d="M 10.460938 19.386719 L 8.640625 19.386719 L 8.640625 20.183594 L 10.460938 20.183594 Z M 10.460938 19.386719 "/>
<path style=" stroke:none;fill-rule:nonzero;fill:url(#radial2);" d="M 10.460938 19.386719 L 8.640625 19.386719 L 8.640625 18.589844 L 10.460938 18.589844 Z M 10.460938 19.386719 "/>
<path style=" stroke:none;fill-rule:nonzero;fill:url(#radial3);" d="M 11.371094 19.386719 L 13.1875 19.386719 L 13.1875 20.183594 L 11.371094 20.183594 Z M 11.371094 19.386719 "/>
<path style=" stroke:none;fill-rule:nonzero;fill:url(#linear0);" d="M 10.460938 19.1875 L 11.371094 19.1875 L 11.371094 20.183594 L 10.460938 20.183594 Z M 10.460938 19.1875 "/>
<path style=" stroke:none;fill-rule:nonzero;fill:url(#linear1);" d="M 10.914062 1.992188 C 16.828125 1.992188 19.101562 3.355469 19.101562 4.71875 C 19.101562 11.542969 14.097656 19.273438 10.914062 19.273438 C 7.730469 19.273438 2.730469 11.542969 2.730469 4.71875 C 2.730469 3.355469 5.457031 1.992188 10.914062 1.992188 Z M 10.914062 1.992188 "/>
<path style=" stroke:none;fill-rule:nonzero;fill:url(#linear2);" d="M 10.914062 1.992188 C 5.457031 1.992188 2.730469 3.355469 2.730469 4.71875 C 2.730469 11.542969 7.730469 19.273438 10.914062 19.273438 C 14.097656 19.273438 19.101562 11.542969 19.101562 4.71875 C 19.101562 3.355469 16.828125 1.992188 10.914062 1.992188 Z M 10.914062 2.902344 C 16.210938 2.902344 18.246094 4.121094 18.246094 5.34375 C 18.246094 11.453125 13.765625 18.375 10.914062 18.375 C 8.0625 18.375 3.585938 11.453125 3.585938 5.34375 C 3.585938 4.121094 6.027344 2.902344 10.914062 2.902344 Z M 10.914062 2.902344 "/>
<path style=" stroke:none;fill-rule:nonzero;fill:rgb(0%,0%,0%);fill-opacity:0.235294;" d="M 19.097656 4.617188 C 18.957031 11.363281 14.050781 18.871094 10.914062 18.871094 C 7.777344 18.871094 2.878906 11.367188 2.730469 4.621094 C 2.730469 4.648438 2.730469 4.675781 2.730469 4.703125 C 2.730469 11.527344 7.730469 19.257812 10.914062 19.257812 C 14.097656 19.257812 19.101562 11.527344 19.101562 4.703125 C 19.101562 4.675781 19.101562 4.644531 19.097656 4.617188 Z M 19.097656 4.617188 "/>
<path style=" stroke:none;fill-rule:nonzero;fill:rgb(100%,100%,100%);fill-opacity:0.392157;" d="M 10.914062 1.992188 C 5.457031 1.992188 2.730469 3.355469 2.730469 4.71875 C 2.730469 4.78125 2.730469 4.839844 2.730469 4.898438 C 2.792969 3.550781 5.519531 2.21875 10.914062 2.21875 C 16.753906 2.21875 19.042969 3.546875 19.101562 4.894531 C 19.101562 4.835938 19.101562 4.777344 19.101562 4.71875 C 19.101562 3.355469 16.828125 1.992188 10.914062 1.992188 Z M 10.914062 1.992188 "/>
<path style=" stroke:none;fill-rule:nonzero;fill:rgb(0%,0%,0%);fill-opacity:0.313726;" d="M 10.914062 5.625 C 10.914062 5.625 7.507812 8.308594 7.855469 10.667969 C 8.101562 12.335938 9.6875 13.011719 10.472656 13.246094 C 10.464844 13.28125 10.460938 13.320312 10.460938 13.355469 L 10.460938 14.71875 C 10.460938 14.972656 10.664062 15.175781 10.914062 15.175781 C 11.167969 15.175781 11.371094 14.972656 11.371094 14.71875 L 11.371094 13.355469 C 11.371094 13.320312 11.367188 13.28125 11.355469 13.246094 C 12.144531 13.011719 13.726562 12.335938 13.972656 10.667969 C 14.320312 8.308594 10.914062 5.625 10.914062 5.625 Z M 10.914062 5.625 "/>
<path style="fill-rule:nonzero;fill:url(#linear3);stroke-width:2;stroke-linecap:round;stroke-linejoin:round;stroke:rgb(47.058824%,56.470591%,61.176473%);stroke-opacity:1;stroke-miterlimit:4;" d="M 253.975747 74.790508 C 259.884273 74.790508 264.611095 79.51733 264.611095 85.334956 L 264.611095 117.059199 C 264.611095 122.967726 259.884273 127.694547 253.975747 127.694547 C 248.15812 127.694547 243.431299 122.967726 243.431299 117.059199 L 243.431299 85.334956 C 243.431299 79.51733 248.15812 74.790508 253.975747 74.790508 Z M 253.975747 74.790508 " transform="matrix(0.0429729,0,0,0.0429729,0,9.239163)"/>
<path style=" stroke:none;fill-rule:nonzero;fill:rgb(12.941177%,12.941177%,12.941177%);fill-opacity:1;" d="M 10.914062 1.925781 C 8.179688 1.925781 6.128906 2.269531 4.753906 2.785156 C 4.066406 3.042969 3.546875 3.34375 3.195312 3.671875 C 2.847656 4 2.664062 4.355469 2.664062 4.71875 C 2.664062 8.148438 3.917969 11.792969 5.574219 14.585938 C 6.398438 15.984375 7.328125 17.167969 8.25 18.007812 C 9.171875 18.84375 10.09375 19.335938 10.914062 19.335938 C 11.738281 19.335938 12.65625 18.84375 13.582031 18.007812 C 14.503906 17.167969 15.429688 15.984375 16.257812 14.585938 C 17.910156 11.792969 19.164062 8.148438 19.164062 4.71875 C 19.164062 4.359375 19.015625 4.003906 18.699219 3.671875 C 18.386719 3.34375 17.910156 3.042969 17.25 2.785156 C 15.929688 2.265625 13.875 1.925781 10.914062 1.925781 Z M 10.914062 2.054688 C 13.867188 2.054688 15.90625 2.398438 17.203125 2.902344 C 17.847656 3.15625 18.308594 3.453125 18.605469 3.761719 C 18.902344 4.074219 19.035156 4.398438 19.035156 4.71875 C 19.035156 8.113281 17.789062 11.746094 16.148438 14.523438 C 15.324219 15.910156 14.402344 17.085938 13.492188 17.910156 C 12.582031 18.738281 11.683594 19.207031 10.914062 19.207031 C 10.144531 19.207031 9.246094 18.738281 8.335938 17.910156 C 7.425781 17.085938 6.503906 15.910156 5.683594 14.523438 C 4.039062 11.746094 2.792969 8.113281 2.792969 4.71875 C 2.792969 4.398438 2.953125 4.078125 3.285156 3.765625 C 3.617188 3.453125 4.121094 3.15625 4.796875 2.902344 C 6.152344 2.398438 8.191406 2.054688 10.914062 2.054688 Z M 10.914062 2.835938 C 8.464844 2.835938 6.628906 3.140625 5.394531 3.605469 C 4.777344 3.835938 4.3125 4.105469 4 4.398438 C 3.683594 4.695312 3.519531 5.015625 3.519531 5.34375 C 3.519531 8.414062 4.644531 11.679688 6.125 14.183594 C 6.867188 15.433594 7.695312 16.496094 8.523438 17.246094 C 9.351562 17.996094 10.175781 18.441406 10.914062 18.441406 C 11.652344 18.441406 12.480469 17.996094 13.304688 17.246094 C 14.132812 16.496094 14.964844 15.433594 15.703125 14.183594 C 17.1875 11.679688 18.308594 8.414062 18.308594 5.34375 C 18.308594 5.019531 18.171875 4.699219 17.890625 4.402344 C 17.609375 4.105469 17.179688 3.835938 16.589844 3.605469 C 15.40625 3.140625 13.566406 2.835938 10.914062 2.835938 Z M 10.914062 2.964844 C 13.558594 2.964844 15.382812 3.269531 16.542969 3.722656 C 17.121094 3.949219 17.535156 4.214844 17.796875 4.492188 C 18.0625 4.769531 18.179688 5.054688 18.179688 5.34375 C 18.179688 8.382812 17.066406 11.632812 15.59375 14.117188 C 14.859375 15.359375 14.035156 16.414062 13.21875 17.152344 C 12.40625 17.890625 11.601562 18.3125 10.914062 18.3125 C 10.230469 18.3125 9.425781 17.890625 8.609375 17.152344 C 7.796875 16.414062 6.972656 15.359375 6.238281 14.117188 C 4.765625 11.632812 3.648438 8.382812 3.648438 5.34375 C 3.648438 5.058594 3.789062 4.773438 4.085938 4.492188 C 4.382812 4.214844 4.835938 3.953125 5.441406 3.722656 C 6.652344 3.269531 8.476562 2.964844 10.914062 2.964844 Z M 10.914062 2.964844 "/>
<path style=" stroke:none;fill-rule:nonzero;fill:url(#linear4);" d="M 10.914062 5.175781 C 10.914062 5.175781 7.507812 7.855469 7.855469 10.21875 C 8.1875 12.453125 10.914062 12.90625 10.914062 12.90625 Z M 10.914062 5.175781 "/>
<path style=" stroke:none;fill-rule:nonzero;fill:url(#linear5);" d="M 10.914062 5.175781 C 10.914062 5.175781 14.320312 7.855469 13.972656 10.21875 C 13.644531 12.453125 10.914062 12.90625 10.914062 12.90625 Z M 10.914062 5.175781 "/>
<path style=" stroke:none;fill-rule:nonzero;fill:rgb(100%,100%,100%);fill-opacity:0.588235;" d="M 10.914062 5.175781 C 10.914062 5.175781 7.730469 7.683594 7.835938 9.984375 C 7.933594 7.75 10.914062 5.402344 10.914062 5.402344 C 10.914062 5.402344 13.894531 7.75 13.996094 9.984375 C 14.101562 7.683594 10.914062 5.175781 10.914062 5.175781 Z M 10.460938 13.019531 L 10.460938 13.132812 C 10.460938 13.097656 10.464844 13.058594 10.472656 13.023438 C 10.46875 13.023438 10.464844 13.023438 10.460938 13.019531 Z M 11.371094 13.019531 C 11.367188 13.023438 11.359375 13.023438 11.355469 13.023438 C 11.367188 13.058594 11.371094 13.097656 11.371094 13.132812 Z M 11.371094 13.019531 "/>
<path style="fill:none;stroke-width:11.338583;stroke-linecap:round;stroke-linejoin:round;stroke:rgb(12.941177%,12.941177%,12.941177%);stroke-opacity:1;stroke-miterlimit:4;" d="M 959.908384 455.217827 C 959.908384 455.217827 660.32352 690.900415 690.900415 898.754593 C 712.544734 1045.454979 852.030348 1104.890967 921.086033 1125.504605 C 920.398912 1128.59665 920.055351 1131.688696 920.055351 1135.124302 L 920.055351 1255.02696 C 920.055351 1277.3584 937.920504 1295.223553 959.908384 1295.223553 C 982.239824 1295.223553 1000.104977 1277.3584 1000.104977 1255.02696 L 1000.104977 1135.124302 C 1000.104977 1131.688696 999.761416 1128.59665 998.730734 1125.504605 C 1068.12998 1104.890967 1207.272033 1045.454979 1228.916352 898.754593 C 1259.493248 690.900415 959.908384 455.217827 959.908384 455.217827 Z M 959.908384 455.217827 " transform="matrix(0.0113699,0,0,0.0113699,0,0)"/>
</g>
</svg>
